X: 14675
T: Gan Ainm
R: jig
M: 6/8
K: Gmajor
|:G2A B2G|AGF DGF|~G2A BAB|c2B AGE|
=FGA BAB|cBc def|~g3 fdc|Adc AGF:|
|:GB/c/d ~g3|faf gdB|GB/c/d ~f3|fed cAF|
D3 ~B3|cBc def|~g3 fed|Adc AGF:|

